X: 28840
T: My Two Feet
R: polka
M: 2/4
K: Dmajor
"D"FA "G"GB|"D"FA A2|"D"FA A/B/A/A/|"A"GE E2|
"D"FA FA|"G"GB B2|"D"AF "A"G/F/E/E/|"D"FD D2:|
"D"fd "A"ec|"D"dB A2|"G"GB A/B/A/A/|"A"FE E2|
"D"fd "A"ec|"D"dB A2|"G"GB A/B/A/A/|"D"FD D2:|

